X: 4419
T: Bonnets So Blue
R: jig
M: 6/8
K: Cmajor
G|c3/2d/c efg|G3/2A/G GAB|c3/2e/g gec|d2 e gfd|
c3/2d/c efg|G3/2A/G G2 g|g3/2f/e dcB|c2c3c|
B3/2c/d ded|G2G3c|B3/2c/d def|g2g3f|
e2 d c2 B|A2 B c2 d|e3/2f/e dcB|A2A3G|
c2 c efg|c2 c c2 G|c3/2e/g gec|d2d3G|
c2 c ege|G3/2A/G G2 g|g3/2f/e dcB|c2c3z|

